X:2127
L:1/8
M:9/8
K:D
 d/B/ | A2 F FEF d2 A | B2 e e2 d cBA | A2 F FEF d2 A | BdB AFD D2 :: g | f2 d ded ded | 
 e2 c cdc cdc | d2 B BcB BcB | c2 A ABA ABA | f2 d ded ded | e2 c cdc cdc | d2 B c2 A Bcd | 
 ecA ABc d2 :|

